src/assets/footer/twitter.svg

<svg fill="none" height="24" viewBox="0 0 24 24" width="24" xmlns="http://www.w3.org/2000/svg"><path d="m21 6.63231c-.6614.29482-1.3735.4942-2.1204.58328.7628-.45814 1.3481-1.18458 1.6238-2.04994-.7142.4242-1.5034.7328-2.3465.89824-.672-.72008-1.6323-1.16972-2.6952-1.16972-2.038 0-3.6915 1.65967-3.6915 3.70642 0 .29058.0317.57267.0951.84416-3.06921-.15484-5.78976-1.62892-7.61226-3.87399-.31802.54934-.49974 1.18669-.49974 1.86541 0 1.28532.65188 2.42005 1.6429 3.08493-.60434-.018-1.17486-.1866-1.67354-.4623v.0456c0 1.7964 1.27311 3.2949 2.96355 3.6343-.30956.0869-.63603.1304-.97306.1304-.23771 0-.47015-.0222-.69519-.0657.47015 1.4719 1.83307 2.5441 3.44955 2.5727-1.2636.9948-2.85684 1.5876-4.58637 1.5876-.29794 0-.59271-.017-.88114-.0509 1.63444 1.0499 3.57633 1.6639 5.66086 1.6639 6.79344 0 10.50714-5.6471 10.50714-10.54555 0-.16119-.0032-.32239-.0095-.4804.7216-.52282 1.3481-1.17503 1.8415-1.91844z" fill="#fff"/></svg>

<svg width="24" height="24" viewBox="0 0 24 24" fill="none" xmlns="http://www.w3.org/2000/svg">
<path d="M21 6.63231C20.3386 6.92713 19.6265 7.12651 18.8796 7.21559C19.6424 6.75745 20.2277 6.03101 20.5034 5.16565C19.7892 5.58985 19 5.89845 18.1569 6.06389C17.4849 5.34381 16.5246 4.89417 15.4617 4.89417C13.4237 4.89417 11.7702 6.55384 11.7702 8.60059C11.7702 8.89117 11.8019 9.17326 11.8653 9.44475C8.79609 9.28991 6.07554 7.81583 4.25304 5.57076C3.93502 6.1201 3.7533 6.75745 3.7533 7.43617C3.7533 8.72149 4.40518 9.85622 5.3962 10.5211C4.79186 10.5031 4.22134 10.3345 3.72266 10.0588V10.1044C3.72266 11.9008 4.99577 13.3993 6.68621 13.7387C6.37665 13.8256 6.05018 13.8691 5.71315 13.8691C5.47544 13.8691 5.243 13.8469 5.01796 13.8034C5.48811 15.2753 6.85103 16.3475 8.46751 16.3761C7.20391 17.3709 5.61067 17.9637 3.88114 17.9637C3.5832 17.9637 3.28843 17.9467 3 17.9128C4.63444 18.9627 6.57633 19.5767 8.66086 19.5767C15.4543 19.5767 19.168 13.9296 19.168 9.03115C19.168 8.86996 19.1648 8.70876 19.1585 8.55075C19.8801 8.02793 20.5066 7.37572 21 6.63231Z" fill="white"/>
</svg>
